svg/fridge_alert_outline.svg

<svg xmlns="http://www.w3.org/2000/svg" viewBox="0 0 24 24"><path d="M7 21v1H5v-1a2 2 0 0 1-2-2V4c0-1.1.9-2 2-2h10a2 2 0 0 1 2 2v15c0 1.11-.89 2-2 2v1h-2v-1zM5 4v5h10V4zm0 15h10v-8H5zm1-7h2v3H6zm0-6h2v2H6zm13 9h2v2h-2zm0-8h2v6h-2z"/></svg>

<?xml version="1.0" encoding="UTF-8"?><!DOCTYPE svg PUBLIC "-//W3C//DTD SVG 1.1//EN" "http://www.w3.org/Graphics/SVG/1.1/DTD/svg11.dtd"><svg xmlns="http://www.w3.org/2000/svg" xmlns:xlink="http://www.w3.org/1999/xlink" version="1.1" id="mdi-fridge-alert-outline" width="24" height="24" viewBox="0 0 24 24"><path d="M7 21V22H5V21C3.9 21 3 20.11 3 19V4C3 2.9 3.9 2 5 2H15C16.11 2 17 2.9 17 4V19C17 20.11 16.11 21 15 21V22H13V21H7M5 4V9H15V4H5M5 19H15V11H5V19M6 12H8V15H6V12M6 6H8V8H6V6M19 15H21V17H19V15M19 7H21V13H19V7Z" /></svg>
